X: 6
T: The Banshee's Wail Over The Mangle Pit
R: jig
M: 6/8
L: 1/8
K: Ador
cBA BcB | AGE G2 A/B/ | cBA Bed | BAA A2 B |cBA B>cB | AGE G>AB | cde dBg | BA^G A2 :|gfe age | dBG G2 e/f/ | gfe ac'/b/a | ef^g a2 e/f/ |gfe age | dBG G2 B | c>BA dBg | BA^G A2 :|


Tune 131	Setting 22267

